X:5917
T:Sean Ryan's Jig
O:england
R:double jig
M:6/8
L:1/8
K:D
|:A|dcd AFE|FED ECA,|DFA dfa|ged cBA|
dcd AFE|FED ECA,|DFA dfa|gec d2:|
|:g|fed faf|ged cde|fdB gec|dcB A2A|
d3 afd|B3 gec|1 dcd AFD|A,CE D2:|2 dcd ABG|FGE D3||
